TV/Source/BBC One - Original.svg

<svg fill-rule="evenodd" height="323.49008" viewBox="0 0 297 110" width="878.49561" xmlns="http://www.w3.org/2000/svg"><g transform="translate(-3.439405 -1.2666)"><path d="m39.981542 33.057093h227.8277v47.605785h-227.8277z" fill="#fff" fill-rule="nonzero"/><path d="m2.5769944 1.2665979h298.7248156v110.0000021h-298.7248156zm150.7503756 78.1021811c4.79532-.751505 8.642-2.570799 11.71506-5.540687 3.57442-3.454548 5.63016-7.70738 6.3748-13.187062.1912-1.407614.21709-4.957457.04626-6.355858-.67299-5.510491-2.81256-10.039073-6.36333-13.468339-4.11812-3.977184-9.68307-5.981641-16.06749-5.787367-5.06135.154047-9.52012 1.713252-13.18439 4.610671-2.00784 1.587557-4.10606 4.191417-5.31786 6.598853-3.26601 6.489229-3.32241 15.282924-.13982 21.788736 1.09164 2.231587 2.18961 3.775745 3.91085 5.500153 3.48404 3.490579 7.81701 5.430448 13.39997 5.999144.85734.087311 4.75939-.022518 5.62595-.158244zm-5.35839-7.870639c-3.08667-.3257-5.52901-1.421636-7.43961-3.338784-1.88153-1.887974-2.96867-4.243414-3.48946-7.561213-.21985-1.401063-.22231-5.108433-.0042-6.561494.18712-1.247425.55785-2.712972.91139-3.602864 1.31293-3.305108 3.70574-5.597393 6.9958-6.701927 2.31542-.777401 5.63219-.937794 8.2511-.398885 5.11068 1.051513 8.37352 4.608624 9.32104 10.161901.37749 2.211423.37729 5.355932-.0001 7.592944-1.03033 6.107438-4.8893 9.793621-10.90543 10.416975-.9512.098569-2.67233.095397-3.64053-.006653zm98.72271 7.828161c5.01458-.663478 9.36997-2.167205 12.87928-4.446593.93391-.606567 1.89422-1.323066 1.89422-1.41355 0-.038794-.7208-1.40137-1.60168-3.02813l-1.60169-2.957708-.4738.303182c-6.46098 4.132971-15.95808 5.255418-21.65097 2.55872-3.54841-1.680906-5.61346-4.597058-6.39823-9.035462l-.04934-.27923h16.57324 16.57343l.04514-.193147c.25559-1.094811.37034-4.098681.22407-5.862191-.20779-2.502014-.54536-4.217722-1.25316-6.368652-2.20497-6.701211-7.09958-11.245965-13.91513-12.920218-2.01449-.494896-3.19354-.624275-5.75471-.63144-2.37765-.006654-3.01943.045959-4.76698.391618-7.39764 1.463193-13.10691 6.526487-15.4994 13.745522-1.10607 3.337657-1.53178 6.861194-1.24866 10.335395.62019 7.610142 4.02181 13.516857 9.79086 17.000884 2.72044 1.64283 5.50896 2.520849 9.53395 3.00203.1654.019754 1.42142.024872 2.79147.011258 1.96127-.019345 2.7923-.064484 3.90809-.212288zm-16.97774-25.765612c.19642-1.87907.96195-3.988647 2.04365-5.631682.62612-.950999 2.07519-2.383792 3.06211-3.027924 1.35317-.88283 2.94788-1.488886 4.742-1.801893 1.24599-.217509 4.09429-.189258 5.45512.054044 2.48113.443513 4.35734 1.325523 5.94315 2.793732 1.88838 1.748258 3.09456 4.41128 3.26131 7.199997l.05517.923464h-12.30793-12.30781zm-45.55143 14.350759c0-6.488717.03408-10.978812.08864-11.659793.34852-4.349149 1.45716-7.153833 3.73347-9.444583 2.41962-2.434971 5.67385-3.590991 9.7058-3.447998 3.23161.11464 5.4849 1.003405 7.25916 2.862926 1.39287 1.459917 2.22094 3.166003 2.70427 5.5717.35303 1.75788.38803 2.564043.43441 10.049922.06059 9.752985.22282 12.919194.82622 16.126142l.09305.493974h4.1824 4.18231l-.1566-.966352c-.16275-1.003098-.34126-2.624331-.50811-4.61671-.05814-.694595-.12395-4.947222-.16408-10.607666-.06602-9.339565-.08894-10.055552-.39059-12.196553-.44945-3.191594-1.52154-6.09843-3.02311-8.197466-1.23422-1.725431-3.27922-3.586487-5.04129-4.588459-4.41875-2.512557-10.40264-2.990769-15.50862-1.239237-1.85123.634921-3.54504 1.569952-5.0329 2.778174-.93329.757852-2.31879 2.178362-2.90725 2.980739-.23336.318433-.44719.578931-.47514.578931-.02784 0-.09692-.434915-.15343-.966353-.1609-1.513757-.50789-3.398559-.88559-4.809858l-.08638-.322116h-4.10709-4.10707l.10829.622739c.36624 2.108555.61128 4.985196.72572 8.523677.04585 1.417747.08403 9.428718.08475 17.802134l.00133 15.224376h4.20872 4.20871zm-119.819112-21.056064v-10.65045h-11.337574-11.337881v10.65045 10.650553h11.337881 11.337574zm-16.748882.043092v-7.68742h2.992407c2.698949 0 3.057608.016685 3.655987.169709 1.935878.495202 3.186374 1.842937 3.292415 3.548614.090177 1.448761-.4169 2.495771-1.55818 3.217592l-.335321.212084.43082.151796c1.106479.38957 2.018582 1.168712 2.493724 2.130356.317102.641676.322936.670848.322936 1.649893 0 .977406-.006244 1.00924-.319968 1.643955-.706979 1.430439-1.945704 2.227187-3.926824 2.525864-.598788.090279-1.663096.123954-3.934399.124261l-3.113597.000513zm6.303758 5.193288c1.432691-.207068 2.19955-.918962 2.19955-2.041408 0-.71005-.260805-1.179767-.852941-1.536788-.713326-.430104-1.3853-.541469-3.265291-.541469h-1.636483v2.104358 2.104357l1.481617-.00174c.814967-.001023 1.748053-.040226 2.073548-.08731zm-1.052025-6.648599c1.382024-.292946 1.949696-.964101 1.860441-2.199242-.049336-.679856-.318331-1.077513-.920394-1.359916-.449655-.210651-.573711-.226823-1.96157-.253538l-1.481617-.028661v1.982656 1.982655l.96625-.001535c.531437-.00082 1.223063-.055887 1.53689-.122419zm37.694196 1.412219v-10.65045h-11.380666-11.380666v10.65045 10.650553h11.380666 11.380666zm-16.748882.050463v-7.694791l2.941741.001536c3.31698.001739 3.71126.048517 4.757861.565727 1.579471.78037 2.437324 2.350424 2.182352 3.99397-.053327.344227-.170116.790811-.259474.992658-.197139.445765-.8338 1.143431-1.246197 1.365443-.31229.168172-.391516.295606-.183628.295606.287623 0 1.522049.717831 1.9629 1.141486.971061.933086 1.395638 2.386249 1.062671 3.636744-.414648 1.557772-1.640886 2.654015-3.510232 3.138471-.652218.168991-.983037.18629-4.207896.220682l-3.500098.037257zm6.98689 5.023989c1.453469-.470945 1.991457-2.012647 1.068914-3.063342-.605237-.689169-1.439856-.890915-3.696726-.892962l-1.610587-.001433v2.113979 2.113775l1.82523-.039715c1.581825-.034597 1.903533-.065304 2.413169-.230302zm-1.374041-6.563541c1.008728-.317409 1.476909-.938717 1.466571-1.946524-.006449-.632668-.153126-.982831-.552625-1.31887-.446379-.375649-1.001051-.484865-2.462607-.484865h-1.315697v1.987364 1.987364l1.223985-.046675c.727246-.027944 1.392976-.100003 1.640373-.177794zm37.247098 1.489089v-10.65045h-11.33767-11.33768v10.65045 10.650553h11.33768 11.33767zm-12.00698 7.816084c-3.0963-.436144-5.560858-2.243256-6.680746-4.8985-.671769-1.593084-.74086-3.442982-.192022-5.150706.876176-2.726279 3.294778-4.797678 6.307448-5.401891 2.27468-.456308 4.28425-.255278 6.96785.696642l.96635.342589v1.40833c0 .774535-.01453 1.408329-.03244 1.408329-.01781 0-.47197-.209217-1.00925-.464803-1.90998-.908725-3.22138-1.21119-4.97076-1.146295-.91579.033982-1.19297.080042-1.88501.314133-1.04619.353541-1.71334.759694-2.42104 1.473736-.9594.967786-1.44979 2.2017-1.44744 3.641862.00256 1.529316.47289 2.695367 1.49144 3.697443 1.14292 1.124186 2.64911 1.682748 4.56267 1.691449 1.69586.007779 3.12179-.371761 4.91734-1.308941l.96625-.504416v1.443745 1.443644l-.58774.270939c-1.611.742395-2.9661 1.039435-4.95223 1.085189-.8032.018527-1.70343-.000512-2.00067-.042478z" fill="#c90302"/></g></svg>

<?xml version="1.0" encoding="UTF-8" standalone="no"?>
<!-- Creator: CorelDRAW -->
<svg
   xmlns:dc="http://purl.org/dc/elements/1.1/"
   xmlns:cc="http://creativecommons.org/ns#"
   xmlns:rdf="http://www.w3.org/1999/02/22-rdf-syntax-ns#"
   xmlns:svg="http://www.w3.org/2000/svg"
   xmlns="http://www.w3.org/2000/svg"
   xmlns:sodipodi="http://sodipodi.sourceforge.net/DTD/sodipodi-0.dtd"
   xmlns:inkscape="http://www.inkscape.org/namespaces/inkscape"
   xml:space="preserve"
   width="878.49561"
   height="323.49008"
   style="fill-rule:evenodd"
   viewBox="0 0 297 110"
   sodipodi:version="0.32"
   inkscape:version="0.46"
   version="1.0"
   sodipodi:docbase="C:\Users\Chris\Desktop\SVGs"
   sodipodi:docname="BBC_One_logo.svg"
   inkscape:output_extension="org.inkscape.output.svg.inkscape"
   id="svg2"><metadata
   id="metadata15"><rdf:RDF><cc:Work
       rdf:about=""><dc:format>image/svg+xml</dc:format><dc:type
         rdf:resource="http://purl.org/dc/dcmitype/StillImage" /></cc:Work></rdf:RDF></metadata><sodipodi:namedview
   inkscape:window-height="480"
   inkscape:window-width="640"
   inkscape:pageshadow="2"
   inkscape:pageopacity="0.0"
   guidetolerance="10.0"
   gridtolerance="10.0"
   objecttolerance="10.0"
   borderopacity="1.0"
   bordercolor="#666666"
   pagecolor="#ffffff"
   id="namedview13"
   showgrid="true"><inkscape:grid
     type="xygrid"
     id="grid2390"
     visible="true"
     enabled="true" /></sodipodi:namedview>
 <defs
   id="defs4"><inkscape:perspective
   sodipodi:type="inkscape:persp3d"
   inkscape:vp_x="0 : 194.8819 : 1"
   inkscape:vp_y="0 : 1000 : 0"
   inkscape:vp_z="1052.3622 : 194.8819 : 1"
   inkscape:persp3d-origin="526.18109 : 129.92126 : 1"
   id="perspective17" />
  <style
   type="text/css"
   id="style6">
   
    .fil0 {fill:#C90302}
   
  </style>
 </defs>
 <g
   id="Layer_x0020_1"
   transform="translate(-3.4394046,-1.2666)">
  <metadata
   id="CorelCorpID_0Corel-Layer" />
  <rect
   style="opacity:1;fill:#ffffff;fill-opacity:1;fill-rule:nonzero;stroke:none;stroke-width:0.20000000000000001;stroke-linecap:round;stroke-linejoin:miter;stroke-miterlimit:4;stroke-dasharray:none;stroke-dashoffset:0;stroke-opacity:1"
   id="rect2392"
   width="227.8277"
   height="47.605785"
   x="36.542137"
   y="31.790493"
   transform="translate(3.4394046,1.2666)" /><path
   class="fil0"
   d="M 2.5769944,1.2665979 L 301.30181,1.2665979 L 301.30181,111.2666 L 2.5769944,111.2666 L 2.5769944,1.2665979 L 2.5769944,1.2665979 z M 153.32737,79.368779 C 158.12269,78.617274 161.96937,76.79798 165.04243,73.828092 C 168.61685,70.373544 170.67259,66.120712 171.41723,60.64103 C 171.60843,59.233416 171.63432,55.683573 171.46349,54.285172 C 170.7905,48.774681 168.65093,44.246099 165.10016,40.816833 C 160.98204,36.839649 155.41709,34.835192 149.03267,35.029466 C 143.97132,35.183513 139.51255,36.742718 135.84828,39.640137 C 133.84044,41.227694 131.74222,43.831554 130.53042,46.23899 C 127.26441,52.728219 127.20801,61.521914 130.3906,68.027726 C 131.48224,70.259313 132.58021,71.803471 134.30145,73.527879 C 137.78549,77.018458 142.11846,78.958327 147.70142,79.527023 C 148.55876,79.614334 152.46081,79.504505 153.32737,79.368779 z M 147.96898,71.49814 C 144.88231,71.17244 142.43997,70.076504 140.52937,68.159356 C 138.64784,66.271382 137.5607,63.915942 137.03991,60.598143 C 136.82006,59.19708 136.8176,55.48971 137.03571,54.036649 C 137.22283,52.789224 137.59356,51.323677 137.9471,50.433785 C 139.26003,47.128677 141.65284,44.836392 144.9429,43.731858 C 147.25832,42.954457 150.57509,42.794064 153.194,43.332973 C 158.30468,44.384486 161.56752,47.941597 162.51504,53.494874 C 162.89253,55.706297 162.89233,58.850806 162.51494,61.087818 C 161.48461,67.195256 157.62564,70.881439 151.60951,71.504793 C 150.65831,71.603362 148.93718,71.60019 147.96898,71.49814 z M 246.69169,79.326301 C 251.70627,78.662823 256.06166,77.159096 259.57097,74.879708 C 260.50488,74.273141 261.46519,73.556642 261.46519,73.466158 C 261.46519,73.427364 260.74439,72.064788 259.86351,70.438028 L 258.26182,67.48032 L 257.78802,67.783502 C 251.32704,71.916473 241.82994,73.03892 236.13705,70.342222 C 232.58864,68.661316 230.52359,65.745164 229.73882,61.30676 L 229.68948,61.02753 L 246.26272,61.02753 L 262.83615,61.02753 L 262.88129,60.834383 C 263.13688,59.739572 263.25163,56.735702 263.10536,54.972192 C 262.89757,52.470178 262.56,50.75447 261.8522,48.60354 C 259.64723,41.902329 254.75262,37.357575 247.93707,35.683322 C 245.92258,35.188426 244.74353,35.059047 242.18236,35.051882 C 239.80471,35.045228 239.16293,35.097841 237.41538,35.4435 C 230.01774,36.906693 224.30847,41.969987 221.91598,49.189022 C 220.80991,52.526679 220.3842,56.050216 220.66732,59.524417 C 221.28751,67.134559 224.68913,73.041274 230.45818,76.525301 C 233.17862,78.168131 235.96714,79.04615 239.99213,79.527331 C 240.15753,79.547085 241.41355,79.552203 242.7836,79.538589 C 244.74487,79.519244 245.5759,79.474105 246.69169,79.326301 L 246.69169,79.326301 z M 229.71395,53.560689 C 229.91037,51.681619 230.6759,49.572042 231.7576,47.929007 C 232.38372,46.978008 233.83279,45.545215 234.81971,44.901083 C 236.17288,44.018253 237.76759,43.412197 239.56171,43.09919 C 240.8077,42.881681 243.656,42.909932 245.01683,43.153234 C 247.49796,43.596747 249.37417,44.478757 250.95998,45.946966 C 252.84836,47.695224 254.05454,50.358246 254.22129,53.146963 L 254.27646,54.070427 L 241.96853,54.070427 L 229.66072,54.070427 L 229.71395,53.560689 L 229.71395,53.560689 z M 184.16252,67.911448 C 184.16252,61.422731 184.1966,56.932636 184.25116,56.251655 C 184.59968,51.902506 185.70832,49.097822 187.98463,46.807072 C 190.40425,44.372101 193.65848,43.216081 197.69043,43.359074 C 200.92204,43.473714 203.17533,44.362479 204.94959,46.222 C 206.34246,47.681917 207.17053,49.388003 207.65386,51.7937 C 208.00689,53.55158 208.04189,54.357743 208.08827,61.843622 C 208.14886,71.596607 208.31109,74.762816 208.91449,77.969764 L 209.00754,78.463738 L 213.18994,78.463738 L 217.37225,78.463738 L 217.21565,77.497386 C 217.0529,76.494288 216.87439,74.873055 216.70754,72.880676 C 216.6494,72.186081 216.58359,67.933454 216.54346,62.27301 C 216.47744,52.933445 216.45452,52.217458 216.15287,50.076457 C 215.70342,46.884863 214.63133,43.978027 213.12976,41.878991 C 211.89554,40.15356 209.85054,38.292504 208.08847,37.290532 C 203.66972,34.777975 197.68583,34.299763 192.57985,36.051295 C 190.72862,36.686216 189.03481,37.621247 187.54695,38.829469 C 186.61366,39.587321 185.22816,41.007831 184.6397,41.810208 C 184.40634,42.128641 184.19251,42.389139 184.16456,42.389139 C 184.13672,42.389139 184.06764,41.954224 184.01113,41.422786 C 183.85023,39.909029 183.50324,38.024227 183.12554,36.612928 L 183.03916,36.290812 L 178.93207,36.290812 L 174.825,36.290812 L 174.93329,36.913551 C 175.29953,39.022106 175.54457,41.898747 175.65901,45.437228 C 175.70486,46.854975 175.74304,54.865946 175.74376,63.239362 L 175.74509,78.463738 L 179.95381,78.463738 L 184.16252,78.463738 L 184.16252,67.911448 L 184.16252,67.911448 z M 64.343408,46.855384 L 64.343408,36.204934 L 53.005834,36.204934 L 41.667953,36.204934 L 41.667953,46.855384 L 41.667953,57.505937 L 53.005834,57.505937 L 64.343408,57.505937 L 64.343408,46.855384 z M 47.594526,46.898476 L 47.594526,39.211056 L 50.586933,39.211056 C 53.285882,39.211056 53.644541,39.227741 54.24292,39.380765 C 56.178798,39.875967 57.429294,41.223702 57.535335,42.929379 C 57.625512,44.37814 57.118435,45.42515 55.977155,46.146971 L 55.641834,46.359055 L 56.072654,46.510851 C 57.179133,46.900421 58.091236,47.679563 58.566378,48.641207 C 58.88348,49.282883 58.889314,49.312055 58.889314,50.2911 C 58.889314,51.268506 58.88307,51.30034 58.569346,51.935055 C 57.862367,53.365494 56.623642,54.162242 54.642522,54.460919 C 54.043734,54.551198 52.979426,54.584873 50.708123,54.58518 L 47.594526,54.585693 L 47.594526,46.898476 L 47.594526,46.898476 z M 53.898284,52.091764 C 55.330975,51.884696 56.097834,51.172802 56.097834,50.050356 C 56.097834,49.340306 55.837029,48.870589 55.244893,48.513568 C 54.531567,48.083464 53.859593,47.972099 51.979602,47.972099 L 50.343119,47.972099 L 50.343119,50.076457 L 50.343119,52.180814 L 51.824736,52.179074 C 52.639703,52.178051 53.572789,52.138848 53.898284,52.091764 L 53.898284,52.091764 z M 52.846259,45.443165 C 54.228283,45.150219 54.795955,44.479064 54.7067,43.243923 C 54.657364,42.564067 54.388369,42.16641 53.786306,41.884007 C 53.336651,41.673356 53.212595,41.657184 51.824736,41.630469 L 50.343119,41.601808 L 50.343119,43.584464 L 50.343119,45.567119 L 51.309369,45.565584 C 51.840806,45.564764 52.532432,45.509697 52.846259,45.443165 L 52.846259,45.443165 z M 90.540455,46.855384 L 90.540455,36.204934 L 79.159789,36.204934 L 67.779123,36.204934 L 67.779123,46.855384 L 67.779123,57.505937 L 79.159789,57.505937 L 90.540455,57.505937 L 90.540455,46.855384 z M 73.791573,46.905847 L 73.791573,39.211056 L 76.733314,39.212592 C 80.050294,39.214331 80.444574,39.261109 81.491175,39.778319 C 83.070646,40.558689 83.928499,42.128743 83.673527,43.772289 C 83.6202,44.116516 83.503411,44.5631 83.414053,44.764947 C 83.216914,45.210712 82.580253,45.908378 82.167856,46.13039 C 81.855566,46.298562 81.77634,46.425996 81.984228,46.425996 C 82.271851,46.425996 83.506277,47.143827 83.947128,47.567482 C 84.918189,48.500568 85.342766,49.953731 85.009799,51.204226 C 84.595151,52.761998 83.368913,53.858241 81.499567,54.342697 C 80.847349,54.511688 80.51653,54.528987 77.291671,54.563379 L 73.791573,54.600636 L 73.791573,46.905847 L 73.791573,46.905847 z M 80.778463,51.929836 C 82.231932,51.458891 82.76992,49.917189 81.847377,48.866494 C 81.24214,48.177325 80.407521,47.975579 78.150651,47.973532 L 76.540064,47.972099 L 76.540064,50.086078 L 76.540064,52.199853 L 78.365294,52.160138 C 79.947119,52.125541 80.268827,52.094834 80.778463,51.929836 L 80.778463,51.929836 z M 79.404422,45.366295 C 80.41315,45.048886 80.881331,44.427578 80.870993,43.419771 C 80.864544,42.787103 80.717867,42.43694 80.318368,42.100901 C 79.871989,41.725252 79.317317,41.616036 77.855761,41.616036 L 76.540064,41.616036 L 76.540064,43.6034 L 76.540064,45.590764 L 77.764049,45.544089 C 78.491295,45.516145 79.157025,45.444086 79.404422,45.366295 L 79.404422,45.366295 z M 116.65152,46.855384 L 116.65152,36.204934 L 105.31385,36.204934 L 93.97617,36.204934 L 93.97617,46.855384 L 93.97617,57.505937 L 105.31385,57.505937 L 116.65152,57.505937 L 116.65152,46.855384 z M 104.64454,54.671468 C 101.54824,54.235324 99.083682,52.428212 97.963794,49.772968 C 97.292025,48.179884 97.222934,46.329986 97.771772,44.622262 C 98.647948,41.895983 101.06655,39.824584 104.07922,39.220371 C 106.3539,38.764063 108.36347,38.965093 111.04707,39.917013 L 112.01342,40.259602 L 112.01342,41.667932 C 112.01342,42.442467 111.99889,43.076261 111.98098,43.076261 C 111.96317,43.076261 111.50901,42.867044 110.97173,42.611458 C 109.06175,41.702733 107.75035,41.400268 106.00097,41.465163 C 105.08518,41.499145 104.808,41.545205 104.11596,41.779296 C 103.06977,42.132837 102.40262,42.53899 101.69492,43.253032 C 100.73552,44.220818 100.24513,45.454732 100.24748,46.894894 C 100.25004,48.42421 100.72037,49.590261 101.73892,50.592337 C 102.88184,51.716523 104.38803,52.275085 106.30159,52.283786 C 107.99745,52.291565 109.42338,51.912025 111.21893,50.974845 L 112.18518,50.470429 L 112.18518,51.914174 L 112.18518,53.357818 L 111.59744,53.628757 C 109.98644,54.371152 108.63134,54.668192 106.64521,54.713946 C 105.84201,54.732473 104.94178,54.713434 104.64454,54.671468 L 104.64454,54.671468 z"
   id="path10"
   style="fill:#c90302" />
  <sodipodi:namedview
   inkscape:window-height="974"
   inkscape:window-width="1280"
   inkscape:pageshadow="2"
   inkscape:pageopacity="0.0"
   guidetolerance="10.0"
   gridtolerance="10.0"
   objecttolerance="10.0"
   borderopacity="1.0"
   bordercolor="#666666"
   pagecolor="#ffffff"
   id="base"
   inkscape:zoom="0.25612053"
   inkscape:cx="1329.6704"
   inkscape:cy="-22.75906"
   inkscape:window-x="-8"
   inkscape:window-y="-8"
   inkscape:current-layer="svg2413" />
 </g>
</svg>
